X:1
L:1/8
M:2/2
K:D
""D"" d2 dc d2 dc | dcde fedc |""Bm"" B2 BA B2 BA | BABc""A"" dcec |""D"" d2 dc d2 dc | dcde fedc | 
""Bm"" B2 BA""D"" F2 FA |1""A"" cdef""D"" d2 Ac :|2""A"" cdef""D"" d2 ag |:""D/F#"" f2 fe""D"" d2 dc | 
""Bm"" B2 BA""G"" G2 gf |""A"" e2 ed""F#m"" c2 cB |""E"" A^GAB""A"" A2 ag |""D"" fdad""G"" gdfd | gabg""Em"" e3 g | 
""D"" fadf AdFA |1""A"" cdec""D"" d2 ag :|2""A"" cdec""D"" d4 |]
